!!!!SEGMENT: pl-kk--i-545--007_anonim--8-piesn-do-sw-wincentego-kadlubka-badz-pozdrowiony-polski-nasz-patronie.krn
!!!cenid: 18xx:4484
!!!COM: Anonim
!!!COM-rismID: pe30004985
!!!CDT:
!!!CNT:
!!!OTL: 8. Pieśń do Św. Wincentego Kadłubka/Bądź pozdrowiony Polski nasz Patronie
!!!PDT:
!!!AGN: Sacred
!!!YEC: Copyright 2022 Narodowy Instytut Fryderyka Chopina (https://polishscores.org)
!!!YEM: License CC-BY-4.0 (https://creativecommons.org/licenses/by/4.0)
!!!SMS-siglum: PL-Kk
!!!SMS-shelfmark: I.545
!!!SMS-variant:
!!!SMS-altvar:
!!!SMS-shelfwork: 007 W
!!!NIFC-rismSourceID: 1001210831
!!!NIFC-rismChildID: 1001210840
!!!NIFC-islandoraID: pl-kk:17058
!!!URL-pdf-islandora: https://repozytorium.nifc.pl/islandora/object/pl-kk%3A17058/datastream/PDF/view
!!!URL-scan: https://polish.musicsources.pl/pl/lokalizacje/galeria/rekopisy/7172/7 @EN{Scan on Polish Music Sources Website} @PL{Skany w portalu Dziedzictwo Muzyki Polskiej w otwartym dostępie}
!!!IIIF:
!!!ONB-nifc: UWAGA: 5v.
!!!AIN: 1 alto 1 bass 1 soprn 1 tenor
!!!key: b
**kern	**text	**dynam	**kern	**text	**dynam
*part2	*part2	*part2	*part1	*part1	*part1
*staff2	*staff2	*	*staff1	*staff1	*
*ICvox	*	*	*ICvox	*	*
*Itenor&Ibass	*	*	*Isoprn&Ialto	*	*
*I"[Voci]	*	*	*I"[Voci]	*	*
*clefF4	*	*	*clefG2	*	*
*k[f#c#]	*	*	*k[f#c#]	*	*
*b:	*	*	*b:	*	*
*M4/4	*	*	*M4/4	*	*
*met(c)	*	*	*met(c)	*	*
*>[A,B,B]	*>[A,B,B]	*>[A,B,B]	*>[A,B,B]	*>[A,B,B]	*>[A,B,B]
=1	=1	=1	=1	=1	=1
*>A	*>A	*>A	*>A	*>A	*>A
*^	*	*	*^	*	*
!!LO:TX:t=P:problem:dynamika czerwonym tuszem
!	!	!	!	!	!	!	!LO:DY:a:color=red:rj
2B/	2B\	Ze-	.	2b/	2b\	Badź	mf
4B/	4B\	-wsząd	.	4ff#/	4dd\	poz-	.
4B/	4BB\	nie-	.	4ff#/	4dd\	-dro-	.
=2	=2	=2	=2	=2	=2	=2	=2
2B/	2BB\	-do-	.	2ee/	2cc#\	-wio-	.
2B/	2BB\	-la	.	2dd/	2b\	-ny	.
=3	=3	=3	=3	=3	=3	=3	=3
4F#/	4F#\	Kraj	.	4cc#/	4a#X\	Pol-	.
4F#/	4BB\	nasz	.	4dd/	4b\	-ski	.
4E\	4ryy	pog-	.	4gg/	4b\	nasz	.
4An/	4E\	-nę-	.	4gg/	4cc#\	Pa-	.
=4	=4	=4	=4	=4	=4	=4	=4
2A/	2D\	-bi-	.	2ff#/	2dd\	-tro-	.
2A/	2AA\	-ła	.	2ee/	2cc#\	-nie	.
=5	=5	=5	=5	=5	=5	=5	=5
2A/	2AA\	Chmu-	.	2ee/	2ccn\	Do	.
4A/	4A\	-ra	.	4ff#/	4cc\	Cie-	.
4B-X/	4E\	sie	.	4gg/	4cc#X\	-bie	.
=6	=6	=6	=6	=6	=6	=6	=6
!LO:TX:t=P:problem:nieczytleny tekst	!	!	!	!	!	!	!
4B-X/	2D\	nie-	.	(4gg/	(4cc#X\	wzno-	.
4A/	.	.	.	4ff#/)	4dd\)	.	.
4A/	4AA\	-szcze-	.	2ee/	4dd\	-sim	.
4G/	4AA#X\	-si	.	.	4cc#\	.	.
!!LO:LB:g=original
=7	=7	=7	=7	=7	=7	=7	=7
4F#/	4BB\	w Ko-	.	4dd/	4b\	na-	.
4F#/	4C#\	-ło	.	4ee/	4b\	-sze	.
4F#/	4D\	roz-	.	4ff#/	4b\	drzą-	.
4F#/	4BB\	-to-	.	4dd/	4b\	-ce	.
=8	=8	=8	=8	=8	=8	=8	=8
4G/	4E\	-czy-	.	2cc#/	(4b\	dlo-	.
4F#/	4F#\	.	.	.	4a#X\)	.	.
2D/	2BB\	-ła	.	2b/	2b\	-nie	.
=9!|:	=9!|:	=9!|:	=9!|:	=9!|:	=9!|:	=9!|:	=9!|:
*>B	*>B	*>B	*>B	*>B	*>B	*>B	*>B
!	!	!	!	!	!	!	!LO:HP:b:color=red
2F#/	2FF#\	Bła-	.	2cc#/	2a#X\	-Do	<
4C#/	4FF#\	-ga-	.	4b/	4e#X\	Cie-	.
4C#/	4FF#\	-my	.	4a#X/	4f#\	-bie	.
=10	=10	=10	=10	=10	=10	=10	=10
4F#/	2FF#	Kor-	.	(4dd/	2a#X\	mo-	.
4E/	.	.	.	4cc#/)	.	.	.
2D/	2BB\	-nie	.	2b/	2b\	-dły	[
=11	=11	=11	=11	=11	=11	=11	=11
4A/	4AA\	u-	.	4ee/	4cc#\	za-	.
4G/	4C#\	-proś	.	4ee/	4a\	-no-	.
4G/	4E\	zmi-	.	4dd/	4a\	-sim	.
4G/	4E\	-ło-	.	4cc#/	4a\	w	.
=12	=12	=12	=12	=12	=12	=12	=12
4A/	2AA\	-wa-	.	(4ff#/	2cc#\	po-	.
4G/	.	.	.	4ee/)	.	-ko-	.
2F#/	2D\	-nie	.	2dd/	2dd\	-rze	.
!!LO:LB:g=original
=13	=13	=13	=13	=13	=13	=13	=13
!	!	!	!LO:DY:a:color=red:rj	!	!	!	!LO:DY:a:color=red:rj
(4d\	2.ryy	A	ff	(4dd/	2dd\	Gdy	ff
4c#\)	.	.	.	4ee/)	.	.	.
4B\	.	spra-	.	4ff#/	4dd\	ży-	.
4B/	4E\	-wie-	.	4gg/	4ee\	-cie	.
=14	=14	=14	=14	=14	=14	=14	=14
2A/	(4A\	-dli-	.	2ff#/	2dd\	bó-	.
.	4AA\)	.	.	.	.	.	.
4A/	(4AA\	wość	.	2ee/	2cc#\	-lem	.
4G/	4AA#X\)	.	.	.	.	.	.
=15	=15	=15	=15	=15	=15	=15	=15
4F#/	4AA\	Ka-	.	4dd/	4b\	ser-	.
4B/	4GG\	-rać	.	4ee/	4b\	-ce	.
4A#X/	4FF#\	nas	.	4ff#/	4cc#\	na-	.
4F#/	4BB\	prze-	.	4dd/	4b\	-sze	.
=16	=16	=16	=16	=16	=16	=16	=16
!LO:ART:color=red	!	!	!	!LO:ART:color=red	!	!	!
4G^/	(4D\	-sta-	.	2cc#^/	(4b\	o-	.
4F#/	4F#\)	.	.	.	4a#X\)	.	.
2D/	2BB\	nie.	.	2b/	2b\	-rze.	.
*v	*v	*	*	*	*	*	*
*	*	*	*v	*v	*	*
==	==	==	==	==	==
*-	*-	*-	*-	*-	*-
!!!system-decoration: (s1,s2)
!!!RDF**kern: i = editorial accidental
!!!RDF**kern: > = above
!!!RDF**kern: < = below
!!!RDF**kern: N = linked
!!!RDF**dynam: > = "dim.", fontstyle= "italic"
!!!RDF**kern: @ = marked note, color=red
!!!ENC: Filip Voros
!!!EED: Katarzyna Serwa
!!!END: 2023-10-27
!!!EEV: 2024-04-21
